X: 5
T: The Concertina
R: reel
M: 4/4
L: 1/8
K: Gmaj
|:d2Bd edBd|d2Bd edBd|e2fd e2fd|e2fd edBd|
d2Bd edBd|d2Bd edBd|d2 ef g3e|dBAB G4:||
|:dgfg dgfg|dgfg edBd|e2fd e2fd|e2fd edBd|
dgfg dgfg|dggd edBd|d2 ef g3e|dBAB G4:||


Tune 18	Setting 23829

